img/logo-desk.svg

<svg width="160" height="160" viewBox="0 0 160 160" fill="none" xmlns="http://www.w3.org/2000/svg">
<path fill-rule="evenodd" clip-rule="evenodd" d="M0 0H160V160H0V0Z" fill="#252323"/>
<path d="M73.1139 29.3055H74.9379V70.7327H72.3203V29.3055H73.1139Z" fill="#EC268F"/>
<path d="M22.0156 69.9327V29.3055H25.1772L42.1052 66.7583L58.8348 29.3055H61.9964V70.7327H59.3788V34.3807L43.0396 70.5215H42.1692L42.118 70.6431L42.0604 70.5215H40.9788L24.6332 34.3807V70.7327H22.0156V69.9327Z" fill="#00AFEF"/>
<path d="M91.0352 23.4496V21.6512H111.253V24.2496H91.0352V23.4496Z" fill="#FFF212"/>
<path d="M72.2578 23.5904V21.6512H74.997V24.384H72.2578V23.5904Z" fill="#EC268F"/>
<path d="M109.269 98.0096L110.78 98.7584L95.4709 132.314C94.5365 134.336 93.4933 135.846 92.3477 136.845C91.1381 137.901 89.8261 138.394 88.4053 138.33C87.6373 138.4 86.8437 138.317 86.0181 138.099C85.2053 137.875 84.3541 137.504 83.4645 136.992L82.8181 136.614L83.9125 134.432L84.6101 134.758C85.4549 135.149 86.1973 135.424 86.8309 135.584C87.4133 135.725 87.8933 135.77 88.2773 135.718L88.3861 135.706C89.2757 135.706 90.0885 135.366 90.8245 134.688C91.6245 133.946 92.3477 132.8 92.9877 131.264L94.6965 127.469L82.0117 98.56L84.2581 97.4336L96.2005 124.698L108.533 97.6384L109.269 98.0096Z" fill="#FEFEFE"/>
<path d="M56.124 122.938V138.33H53.5V97.9263H56.124V103.654C57.0264 102.17 58.0824 100.947 59.3048 99.9999C61.3208 98.4191 63.7592 97.5935 66.6008 97.5231H66.6712C70.7352 97.8111 73.852 99.3151 76.0216 102.029C78.1464 104.691 79.3176 108.512 79.5288 113.472V113.517C79.4584 118.56 78.3768 122.387 76.2776 124.992C74.1336 127.648 70.9912 129.011 66.8376 129.082H66.812C63.9 129.011 61.4168 128.186 59.3624 126.618C58.1144 125.658 57.0392 124.435 56.124 122.938ZM66.8696 126.464C70.1464 126.394 72.6104 125.318 74.2616 123.232C75.9576 121.088 76.8408 117.85 76.9112 113.53C76.7128 109.254 75.74 106.01 73.9992 103.782C72.3096 101.619 69.8456 100.403 66.62 100.141C63.324 100.41 60.8088 101.619 59.0808 103.789C57.3144 106.01 56.3224 109.242 56.124 113.498C56.3928 117.613 57.4232 120.749 59.2216 122.906C60.9944 125.018 63.5416 126.208 66.8696 126.464Z" fill="#FEFEFE"/>
<path d="M11.6172 127.885V87.2511C15.6236 87.2511 19.6236 87.2383 23.63 87.2575C30.8492 87.3343 36.3084 89.0559 39.9948 92.4287C43.7004 95.8207 45.5884 100.832 45.6524 107.456V108.153C45.6844 109.03 45.6908 109.881 45.6588 110.713C45.4604 116.422 43.7132 120.787 40.43 123.801C37.166 126.797 32.4044 128.422 26.158 128.678C25.0508 128.723 23.8924 128.723 22.6828 128.678L11.6172 128.685V127.885ZM14.2412 89.8751V126.054H22.7084C29.8252 126.323 35.0604 124.973 38.4268 121.997C41.7612 119.053 43.2972 114.451 43.0348 108.205V108.173C43.0348 102.041 41.358 97.4591 38.0108 94.4383C34.638 91.3919 29.5244 89.8751 22.6828 89.8751H14.2412Z" fill="#FEFEFE"/>
<path d="M117.236 30.0991L117.23 113.107L144.987 86.3551L146.939 88.3071L129.633 104.781L148.385 127.437L146.28 129.005L127.662 106.496L117.23 116.557V128.307H114.612C114.612 96.6463 114.606 64.9791 114.612 33.3183L87.8924 70.7327H85.0508V29.3055H87.4572V66.7071L114.177 29.3055H117.236V30.0991Z" fill="#FFF212"/>
</svg>

<svg xmlns="http://www.w3.org/2000/svg" fill="none" viewBox="0 0 160 160"><path fill="#252323" fill-rule="evenodd" d="M0 0h160v160H0V0z" clip-rule="evenodd"/><path fill="#EC268F" d="M73.114 29.305h1.824v41.428H72.32V29.305h.794z"/><path fill="#00AFEF" d="M22.016 69.933V29.305h3.161l16.928 37.453 16.73-37.453h3.161v41.428H59.38V34.38l-16.34 36.14h-.87l-.051.122-.058-.121H40.98L24.633 34.38v36.352h-2.617v-.8z"/><path fill="#FFF212" d="M91.035 23.45V21.65h20.218v2.599H91.035v-.8z"/><path fill="#EC268F" d="M72.258 23.59v-1.939h2.739v2.733h-2.74v-.794z"/><path fill="#FEFEFE" d="M109.269 98.01l1.511.748-15.31 33.556c-.933 2.022-1.977 3.532-3.122 4.531-1.21 1.056-2.522 1.549-3.943 1.485-.768.07-1.561-.013-2.387-.231-.813-.224-1.664-.595-2.553-1.107l-.647-.378 1.094-2.182.698.326c.845.391 1.587.666 2.22.826.583.141 1.063.186 1.447.134l.11-.012c.889 0 1.701-.34 2.438-1.018.8-.742 1.523-1.888 2.163-3.424l1.709-3.795L82.011 98.56l2.246-1.126 11.943 27.264 12.332-27.06.736.372zM56.124 122.938v15.392H53.5V97.926h2.624v5.728c.902-1.484 1.958-2.707 3.18-3.654 2.017-1.58 4.455-2.406 7.297-2.477h.07c4.064.288 7.181 1.792 9.35 4.506 2.125 2.662 3.297 6.483 3.508 11.443v.045c-.07 5.043-1.152 8.87-3.251 11.475-2.144 2.656-5.287 4.019-9.44 4.09h-.026c-2.912-.071-5.395-.896-7.45-2.464-1.248-.96-2.323-2.183-3.238-3.68zm10.746 3.526c3.276-.07 5.74-1.146 7.392-3.232 1.696-2.144 2.579-5.382 2.65-9.702-.2-4.276-1.172-7.52-2.913-9.748-1.69-2.163-4.153-3.379-7.379-3.641-3.296.269-5.811 1.478-7.54 3.648-1.766 2.221-2.758 5.453-2.956 9.709.269 4.115 1.3 7.251 3.098 9.408 1.772 2.112 4.32 3.302 7.648 3.558zM11.617 127.885V87.251c4.007 0 8.007-.013 12.013.006 7.22.077 12.678 1.799 16.365 5.172 3.705 3.392 5.593 8.403 5.657 15.027v.697a34.2 34.2 0 0 1 .007 2.56c-.199 5.709-1.946 10.074-5.229 13.088-3.264 2.996-8.026 4.621-14.272 4.877a44.725 44.725 0 0 1-3.475 0l-11.066.007v-.8zm2.624-38.01v36.179h8.467c7.117.269 12.352-1.081 15.719-4.057 3.334-2.944 4.87-7.546 4.608-13.792v-.032c0-6.132-1.677-10.714-5.024-13.735-3.373-3.046-8.487-4.563-15.328-4.563H14.24z"/><path fill="#FFF212" d="M117.236 30.1l-.006 83.007 27.757-26.752 1.952 1.952-17.306 16.474 18.752 22.656-2.105 1.568-18.618-22.509-10.432 10.061v11.75h-2.618c0-31.66-.006-63.328 0-94.989l-26.72 37.415h-2.841V29.305h2.406v37.402l26.72-37.401h3.059v.793z"/></svg>
